brandFactory_export/3.Masa/Vaso_Bar_Beber_3Masa.svg

<?xml version="1.0" encoding="UTF-8"?>
<svg width="24px" height="24px" viewBox="0 0 24 24" version="1.1" xmlns="http://www.w3.org/2000/svg" xmlns:xlink="http://www.w3.org/1999/xlink">
    <title>3.Masa/Vaso_Bar_Beber_3Masa</title>
    <g id="Symbols" stroke="none" stroke-width="1" fill="none" fill-rule="evenodd">
        <g id="3.Masa/Vaso_Bar_Beber_3Masa" fill="#5CB615" fill-rule="nonzero">
            <path d="M17.5663866,5.11596639 C17.707563,5.11596639 17.8252101,5.23361345 17.8252101,5.28403361 L17.5058824,8 L15.5798319,8 L12.5445378,20.6184874 C12.4672269,20.9680672 12.1546218,21.1966387 11.8151261,21.1966387 C11.7546218,21.1966387 11.7042017,21.1865546 11.6436975,21.1764706 C11.2336134,21.0756303 10.994958,20.6789916 11.0857143,20.2823529 L14.0336134,8 L3.82857143,8 L3.51932773,5.37478992 C3.51932773,5.23697479 3.6302521,5.11596639 3.77815126,5.11596639 L14.7327731,5.11596639 L14.0336134,8 L15.5798319,8 L16.2689076,5.11596639 L17.5663866,5.11596639 Z M9.65714286,18.5815126 C9.45882353,18.7798319 9.26722689,18.8504202 9.09915966,18.8504202 C8.83697479,18.8504202 8.6487395,18.6823529 8.57815126,18.6117647 L8.52773109,18.5613445 C8.41680672,18.4504202 8.03697479,17.9831933 8.55798319,17.4689076 C8.75630252,17.2705882 8.94789916,17.210084 9.10588235,17.210084 C9.37478992,17.210084 9.57647059,17.3781513 9.64369748,17.4386555 L9.69411765,17.4890756 C9.80840336,17.5966387 10.1882353,18.0537815 9.65714286,18.5815126 L9.65714286,18.5815126 Z M7.2302521,14.2756303 C6.75966387,14.2756303 6.4,13.9764706 6.28235294,13.8588235 C6.25210084,13.8285714 6.21176471,13.7882353 6.19159664,13.7579832 C6.00336134,13.5596639 5.31428571,12.7226891 6.25210084,11.7983193 C6.60168067,11.4386555 6.9512605,11.3210084 7.25042017,11.3210084 C7.73109244,11.3210084 8.0907563,11.6302521 8.20840336,11.7378151 C8.23865546,11.7680672 8.26890756,11.7983193 8.29915966,11.8386555 C8.49747899,12.0369748 9.16638655,12.8537815 8.23865546,13.7882353 C7.87226891,14.1546218 7.52268908,14.2756303 7.2302521,14.2756303 Z M21.3210084,2.5512605 L16.907563,0.0941176471 C16.7092437,-0.0168067227 16.4605042,-0.0336134454 16.2487395,0.0638655462 C16.0302521,0.154621849 15.8689076,0.342857143 15.8184874,0.571428571 L15.0890756,3.62352941 L3.77478992,3.62352941 C2.80672269,3.62352941 2.01680672,4.41008403 2.01680672,5.46218487 L2.31596639,7.99663866 L2.49411765,9.48907563 L3.97310924,21.8689076 C3.97310924,22.8336134 4.75966387,23.6201681 5.73109244,23.6201681 L15.6067227,23.6201681 C16.5747899,23.6201681 17.3546218,22.8336134 17.3546218,21.9596639 L18.8336134,9.48907563 L19.0117647,7.99663866 L19.3210084,5.37142857 C19.3210084,4.40672269 18.5310924,3.62016807 17.5630252,3.62016807 L16.6252101,3.62016807 L17.0420168,1.8789916 L20.5882353,3.8487395 C20.9478992,4.05714286 21.3983193,3.92941176 21.6067227,3.55966387 C21.8117647,3.20672269 21.6806723,2.75966387 21.3210084,2.5512605 Z" id="Vaso_Bar_Beber_3Masa"></path>
        </g>
    </g>
</svg>

<svg width="24" height="24" viewBox="0 0 24 24" xmlns="http://www.w3.org/2000/svg"><path d="M17.566 5.116c.142 0 .26.118.26.168L17.505 8H15.58l-3.035 12.618a.743.743 0 01-.73.579c-.06 0-.11-.01-.171-.02a.746.746 0 01-.558-.895L14.034 8H3.829l-.31-2.625c0-.138.111-.259.26-.259h10.954L14.033 8h1.547l.689-2.884h1.297zM9.657 18.582c-.198.198-.39.268-.558.268-.262 0-.45-.168-.52-.238l-.051-.05c-.111-.112-.491-.579.03-1.093.198-.198.39-.259.548-.259.269 0 .47.168.538.229l.05.05c.114.108.494.565-.037 1.093zM7.23 14.276c-.47 0-.83-.3-.948-.417-.03-.03-.07-.07-.09-.101-.189-.198-.878-1.035.06-1.96.35-.36.7-.477.998-.477.481 0 .84.31.958.417.03.03.06.06.091.1.198.199.867 1.016-.06 1.95-.367.367-.716.488-1.009.488zM21.321 2.55L16.908.094a.734.734 0 00-.66-.03.72.72 0 00-.43.507l-.729 3.053H3.775c-.968 0-1.758.786-1.758 1.838l.299 2.535.178 1.492 1.48 12.38c0 .965.786 1.751 1.757 1.751h9.876c.968 0 1.748-.786 1.748-1.66l1.479-12.47.178-1.493.309-2.626c0-.964-.79-1.75-1.758-1.75h-.938l.417-1.742 3.546 1.97c.36.208.81.08 1.019-.29a.738.738 0 00-.286-1.008z" fill="#5CB615" fill-rule="nonzero"/></svg>
